X: 29
T:Beggar's Girl,The. WCa.29
M:6/8
Q:60
S:Wm. Calvert MS, 1812, Leyburn, Yorks.
R:air
O:England
A:North Yorkshire
Z:vmp.Chris Partington, May 2003
K:G
"Exactly as writ"d>cB d>cB|A>GA B2GA/B/c/|d>cB d>cB|{B}A>GAG2d|!
d>cB d>cB|A>GA Bcd|d>cB d>cB|A>GAG2B/c/|!
dBg e2d/c/B/A/G/|A>GAG2z|DGB DAc|DcB B/A/ A {B}A|!
DG^F Dc>c|BAG"Pause"d2z|d>cB d>cB|{B}AGA B>cd|!
dcB efg|B>cBA2B/c/|d/b/a/g/f/g/e2g/f/e/d/c/|B>cAG2z||
